X: 1
T: Lake Of Spirits, The
Z: Sergei Ejov
S: https://thesession.org/tunes/15876#setting29863
R: jig
M: 6/8
L: 1/8
K: Bmin
|: B2 F dcB | e2 e edc | d2 F dcB | ABB ~c2 B |
|1 B2 F dcB | e2 e edc | f2 d edc | dcB ABB :|
|2 B2 F dcB| A2 F ABc | B3-B3 | z3 z3 ||
|: B2 B fed | e2 e efg | f2 f fed | e3 d3 |
|1 B2 F fed | e2 e edc | ~c2 B cde | fed cBA :|
|2 B2 F dcB| A2 F ABc | B3-B3 | z3 z3 ||
|: B2 F dcB | e2 e edc | B2 F dcB | ABB ~c2 B :|
| B2 F dcB| A2 F ABc | B3-B3 | z3 z3 ||
